X:1
T:Al Santissimo Sacramento
T:Giovanni Pietro Biandra
T:Source : Madrigaletti a 1, 2 e 3 voci. Libro primo---Venezia---B.Magni (Gardano)---1626. Editor : André Vierendeels (14/03/15).
T:Notes : Original clefs : C1, F4 Editorial accidentals above the staff 
T:Al Santissimo Sacramento
T:Aria
C:Giovanni Pietro Biandra
%%score 1 2
L:1/8
Q:1/4=77
M:4/4
K:F
V:1 treble nm="Canto" snm="C"
V:2 bass nm="BC" snm="BC"
V:1
 z2 d2 dccB | c2 c2 z2 AA | B2 cc dc de | f2 d2 z2 B2- | B2 BB c4 |"^-natural" d2 f2 ed d2- | %6
w: Non ha ma- te- ria'e|for- ma con pa-|ro- le si for- * * *|* ma et|_ e' men- *|* to'il Sa- cra- men-|
w: Due co- se di- fe-|ren- ti ma non|doi Sa- cra- men- * * *|* ti e|_ pa- n'e vi-|no non son vi- ci-|
w: Un cor- po'in va- rio|lo- co in ter-|ra'in a- ria'o fo- * * *|* co che|_ fia si pro-|va, qui- vi si- tro-|
w: Co- no- sce ma non|ve- de qui si|mo- ve la fe- * * *|* de non|_ o- d'e sen-|te ma con la men-|
 d2 ^c2 d4 :: z2 AA B2 cc | d2 f4 _ed | c2 c2 z2 =BB | c=B cd e2 BB | c2 d4 cB |[M:2/4] A4 | %13
w: * * to,|la pre- sen- za re-|al à gli'ac- ci-|den- ti di quel|cor- * * * * po di-|vin ter- mi- nan'|gli'en-|
w: * * no,|hai mol- te par- te'in|u- na co- sa|fra- le pur e'un|com- * * * * po- sto|so- lo'e tan- to|va-|
w: * * va,|che so- stan- za'im- mor-|tal puoi es- ser|sen- za di lo-|co'e _ _ _ _ si- to|qual non è d'es-|sen-|
w: * * te,|per che l'a- tion che|se- guo- no'il com-|po- sto in o-|gni _ _ _ _ lo- co|l'ha pron- to'e di|po-|
[M:4/4] G8 :| %14
w: ti.|
w: le.|
w: za.|
w: sto.|
V:2
 A,4 A,2 G,2 | F,2 E,2 D,2 C,2 | B,,2 A,,2 B,,2 C,2 | D,2 B,,2 F,2 G,2 | _E,2 D,2 E,2 F,2 | %5
 B,,3 A,, G,,4 | A,,4 D,4 :: ^F,4 G,2 _E,2 | D,2 B,,2 D,2 _E,2 |"^-natural" F,2 E,2 ^F,2 G,2 | %10
 C,2 =B,,2 C,2 G,,2 | C,2 G,,2 B,,2 C,2 |[M:2/4] D,4 |[M:4/4] G,,8 :| %14

